public/tech-stack/expressjs.svg

<svg width="100" height="100" viewBox="0 0 100 100" fill="none" xmlns="http://www.w3.org/2000/svg">
<path d="M31.0153 61.315V39.4365H32.2021V42.878C32.3422 42.7254 32.4716 42.5633 32.5894 42.3929C33.5806 40.3365 35.6711 39.0387 37.9534 39.0644C40.6591 38.9837 42.8579 39.9853 44.15 42.3929C44.9723 43.8886 45.4247 45.5593 45.4696 47.2656C45.5146 48.9718 45.1506 50.664 44.4083 52.201C43.2044 54.8991 40.231 56.2406 37.0477 55.7478C36.057 55.6636 35.1032 55.3326 34.2734 54.785C33.4435 54.2374 32.7641 53.4907 32.297 52.613V61.3141L31.0153 61.315ZM32.2021 47.1759L32.4679 49.7449C32.9369 52.669 34.6657 54.3969 37.38 54.7216C38.6546 54.9311 39.9625 54.6922 41.0807 54.0454C42.1989 53.3986 43.0581 52.3841 43.512 51.1747C44.5677 48.6588 44.4899 45.8107 43.3032 43.3537C42.8187 42.2696 41.9946 41.3726 40.9553 40.7983C39.916 40.224 38.718 40.0036 37.5423 40.1704C36.4388 40.2507 35.3877 40.6726 34.5349 41.3777C33.6822 42.0827 33.0703 43.0358 32.784 44.1046C32.5313 45.1161 32.337 46.1412 32.2021 47.1749V47.1759ZM69.7007 50.1493C69.5207 51.6898 68.7874 53.1124 67.6371 54.1527C66.4868 55.193 64.9979 55.7801 63.4471 55.8048C58.4705 56.0554 56.135 52.7506 55.7638 48.937C55.5057 46.866 55.8419 44.7642 56.7331 42.8771C57.3534 41.5825 58.3698 40.519 59.635 39.8407C60.9001 39.1624 62.3484 38.9044 63.7699 39.1042C65.1214 39.2191 66.4024 39.7561 67.4319 40.6391C68.4613 41.5222 69.1869 42.7067 69.5061 44.0249C69.7589 45.2257 69.945 46.4396 70.0634 47.661H56.9932C56.7512 51.1187 58.6091 53.8984 61.2427 54.5687C64.5228 55.3757 67.3263 53.9545 68.344 50.8357C68.57 50.0354 68.982 49.9224 69.7093 50.1493H69.7007ZM56.9838 46.554H68.6744C68.6013 42.8704 66.3076 40.1932 63.1965 40.1628C59.6838 40.1058 57.1366 42.6758 56.9838 46.554ZM72.1169 50.23H73.2628C73.3049 51.0743 73.579 51.8905 74.0551 52.589C74.5311 53.2874 75.1906 53.8411 75.9609 54.189C76.9282 54.6243 77.9812 54.8358 79.0416 54.8079C80.102 54.7799 81.1424 54.5132 82.0854 54.0276C82.5994 53.7961 83.0301 53.4124 83.319 52.9284C83.608 52.4443 83.7414 51.8832 83.7012 51.3209C83.7308 50.7786 83.5828 50.2414 83.2795 49.7908C82.9763 49.3402 82.5344 49.0008 82.0208 48.824C80.7601 48.355 79.4195 48.0968 78.135 47.6847C76.7984 47.3042 75.4914 46.8263 74.2245 46.255C72.1549 45.2448 72.0267 41.3106 74.3698 40.065C75.5695 39.388 76.9197 39.0222 78.2971 39.001C79.6745 38.9798 81.0353 39.3038 82.2553 39.9435C83.7686 40.7789 84.6051 42.466 84.3563 44.1777H83.3737C83.3737 44.1303 83.2845 44.0885 83.2845 44.0401C83.1629 40.9071 80.5294 39.9274 77.7021 40.2027C76.8477 40.2976 76.0378 40.5558 75.2783 40.9375C74.8218 41.146 74.4413 41.4913 74.1896 41.9255C73.9378 42.3597 73.8273 42.8615 73.8732 43.3613C73.8742 43.8615 74.0301 44.3491 74.3194 44.7571C74.6088 45.1651 75.0174 45.4734 75.4891 45.6398C76.7233 46.0926 78.0334 46.3831 79.3104 46.7382L82.3958 47.5452C83.0971 47.7754 83.7121 48.213 84.1592 48.8002C84.6064 49.3875 84.8649 50.0966 84.9003 50.8338C85.1472 52.4905 84.3022 54.1187 82.8079 54.8735C80.1097 56.4001 75.6657 55.9966 73.6862 54.0665C72.6732 53.0478 72.1084 51.6646 72.1197 50.2291L72.1169 50.23ZM99.4401 44.1787H98.3654C98.3654 44.0334 98.3084 43.8939 98.2923 43.7828C98.2751 42.9772 97.9815 42.202 97.4607 41.5872C96.9399 40.9724 96.2236 40.5553 95.4318 40.4058C93.9382 39.9775 92.3449 40.0542 90.8995 40.6242C90.3279 40.7878 89.8246 41.132 89.4649 41.6053C89.1052 42.0786 88.9084 42.6557 88.9039 43.2502C88.8834 43.8339 89.0652 44.4068 89.4184 44.872C89.7716 45.3371 90.2747 45.666 90.8425 45.8031L95.7546 47.0639C96.2858 47.1913 96.8089 47.3504 97.3211 47.5404C98.8876 48.1101 99.9509 49.5645 99.9983 51.2269C100.022 52.0406 99.7986 52.8424 99.3581 53.5269C98.9175 54.2114 98.2803 54.7467 97.5299 55.0624C96.3898 55.5803 95.1541 55.8543 93.902 55.8669C92.6499 55.8795 91.4089 55.6303 90.2586 55.1355C89.3127 54.7276 88.5144 54.0397 87.9712 53.1643C87.428 52.289 87.1661 51.2683 87.2206 50.2395H88.2706C88.6656 52.143 89.9729 53.7285 91.7662 54.4785C93.5596 55.2285 95.6074 55.0443 97.2385 53.9886C97.7278 53.7342 98.134 53.3448 98.409 52.8666C98.6839 52.3884 98.816 51.8415 98.7898 51.2905C98.8141 50.7478 98.6608 50.212 98.3531 49.7643C98.0454 49.3166 97.6001 48.9815 97.0847 48.8098C95.8239 48.3408 94.4834 48.0911 93.1989 47.6705C91.8547 47.2958 90.5398 46.8233 89.2646 46.2569C87.2443 45.2629 87.0829 41.3609 89.3861 40.1163C90.6007 39.4109 91.9772 39.0319 93.3817 39.0163C94.7862 39.0006 96.1708 39.3489 97.4008 40.027C98.1043 40.4469 98.6706 41.0623 99.0307 41.7982C99.3907 42.5342 99.529 43.3589 99.4287 44.172L99.4401 44.1787ZM29.0625 55.4099C28.6394 55.5698 28.1725 55.5694 27.7497 55.4087C27.327 55.2479 26.9777 54.938 26.7678 54.5374L22.5905 48.7604L21.9848 47.9534L17.1373 54.5459C16.9397 54.9293 16.6093 55.2277 16.2078 55.3853C15.8063 55.5429 15.3612 55.5489 14.9556 55.4023L21.2006 47.024L15.3904 39.4536C16.2525 39.1422 17.2132 39.4802 17.6927 40.2606L22.0218 46.1088L26.3767 40.2834C26.5757 39.9065 26.9063 39.616 27.3056 39.4671C27.7049 39.3181 28.145 39.3211 28.5422 39.4754L26.2874 42.4669L23.2333 46.442C23.1485 46.5177 23.0807 46.6105 23.0342 46.7142C22.9878 46.8179 22.9638 46.9303 22.9638 47.0439C22.9638 47.1576 22.9878 47.2699 23.0342 47.3737C23.0807 47.4774 23.1485 47.5701 23.2333 47.6458L29.0501 55.4099H29.0625ZM55.5787 39.3729V40.5122C54.7615 40.4586 53.9422 40.5769 53.1736 40.8595C52.405 41.1422 51.7042 41.5828 51.1165 42.1531C50.5287 42.7233 50.067 43.4104 49.7613 44.1701C49.4555 44.9298 49.3124 45.7451 49.3412 46.5635V55.4507H48.1858V39.4441H49.3251V42.7242C50.7226 40.3318 52.8796 39.4441 55.5863 39.3796L55.5787 39.3729ZM0.00189874 46.9195L0.510767 44.4065C1.90826 39.4375 7.60454 37.3697 11.5236 40.4476C13.8182 42.2495 14.3907 44.8024 14.2787 47.6791H1.35097C1.14211 52.8171 4.84944 55.9197 9.5916 54.3361C11.1543 53.7665 12.3306 52.4677 12.7179 50.8538C12.9685 50.0468 13.3825 49.9082 14.1401 50.1417C14.0137 51.1254 13.666 52.0677 13.123 52.8976C12.58 53.7275 11.856 54.4235 11.0052 54.9333C9.59972 55.7019 7.98716 56.0065 6.39813 55.8034C4.80909 55.6003 3.32496 54.9 2.15794 53.8026C1.0035 52.5048 0.30665 50.8642 0.170889 49.1316C0.170889 48.8468 0.0759505 48.581 0.00949379 48.3246C0.0031646 47.8455 0 47.3771 0 46.9195H0.00189874ZM1.36711 46.5721H13.0578C12.9847 42.8476 10.634 40.2055 7.49916 40.1808C4.00924 40.1334 1.51236 42.7176 1.35856 46.5559L1.36711 46.5721Z" fill="black"/>
</svg>

<svg xmlns="http://www.w3.org/2000/svg" fill="none" viewBox="0 0 100 100"><path fill="#fff" d="M31.015 61.316v-21.88h1.187v3.442q.21-.23.387-.486a5.88 5.88 0 0 1 5.364-3.328c2.706-.08 4.905.92 6.197 3.328a10.7 10.7 0 0 1 .258 9.808c-1.204 2.699-4.177 4.04-7.36 3.547a5.95 5.95 0 0 1-4.751-3.134v8.7zm1.187-14.14.266 2.57c.469 2.923 2.198 4.651 4.912 4.976a5.58 5.58 0 0 0 6.132-3.547 9.52 9.52 0 0 0-.209-7.82 5.47 5.47 0 0 0-5.76-3.184 5.33 5.33 0 0 0-4.759 3.934 27 27 0 0 0-.582 3.07zm37.499 2.974a6.4 6.4 0 0 1-6.254 5.655c-4.977.25-7.312-3.054-7.683-6.867a11 11 0 0 1 .97-6.06 6.76 6.76 0 0 1 7.036-3.773 6.47 6.47 0 0 1 5.736 4.92 33 33 0 0 1 .557 3.636h-13.07c-.242 3.458 1.616 6.238 4.25 6.908 3.28.807 6.083-.614 7.101-3.733.226-.8.638-.913 1.365-.686zm-12.717-3.596h11.69c-.073-3.683-2.366-6.36-5.478-6.39-3.512-.058-6.06 2.512-6.212 6.39m15.133 3.676h1.146a4.6 4.6 0 0 0 2.698 3.96 7.05 7.05 0 0 0 6.124-.162 2.75 2.75 0 0 0 1.616-2.707 2.496 2.496 0 0 0-1.68-2.496c-1.26-.47-2.602-.728-3.886-1.14a28.5 28.5 0 0 1-3.91-1.43c-2.07-1.01-2.198-4.944.145-6.19a8.25 8.25 0 0 1 7.885-.121 4.15 4.15 0 0 1 2.101 4.234h-.982c0-.047-.09-.089-.09-.137-.121-3.133-2.755-4.113-5.582-3.838a7.1 7.1 0 0 0-2.424.735 2.42 2.42 0 0 0-1.405 2.424 2.42 2.42 0 0 0 1.616 2.278c1.234.453 2.544.744 3.821 1.099l3.086.807a3.645 3.645 0 0 1 2.504 3.288 3.89 3.89 0 0 1-2.092 4.04c-2.698 1.527-7.142 1.123-9.122-.807a5.4 5.4 0 0 1-1.566-3.837zm27.323-6.05h-1.075c0-.146-.057-.286-.073-.397a3.51 3.51 0 0 0-2.86-3.377 7.05 7.05 0 0 0-4.532.219 2.75 2.75 0 0 0-1.996 2.626 2.535 2.535 0 0 0 1.939 2.553l4.912 1.26q.796.192 1.566.477a4.05 4.05 0 0 1 2.677 3.686 4.03 4.03 0 0 1-2.468 3.836 9 9 0 0 1-7.271.073 5.04 5.04 0 0 1-3.038-4.896h1.05a5.89 5.89 0 0 0 8.968 3.75 2.89 2.89 0 0 0 1.55-2.699 2.5 2.5 0 0 0-1.704-2.48c-1.261-.47-2.602-.72-3.886-1.14a29 29 0 0 1-3.934-1.414c-2.02-.994-2.182-4.896.121-6.14a8.14 8.14 0 0 1 8.015-.09 4.23 4.23 0 0 1 2.028 4.145zM29.063 55.41a1.85 1.85 0 0 1-2.295-.872L22.59 48.76l-.605-.807-4.848 6.592a1.776 1.776 0 0 1-2.181.857l6.245-8.378-5.81-7.57a1.93 1.93 0 0 1 2.302.806l4.329 5.848 4.355-5.825a1.737 1.737 0 0 1 2.165-.808l-2.255 2.991-3.054 3.976a.807.807 0 0 0 0 1.203l5.817 7.764zm26.516-16.037v1.14a5.86 5.86 0 0 0-6.238 6.051v8.887h-1.155V39.445h1.14v3.28c1.397-2.393 3.554-3.28 6.26-3.345zM.002 46.92l.509-2.513c1.397-4.969 7.094-7.037 11.013-3.959 2.294 1.802 2.867 4.355 2.755 7.231H1.35c-.209 5.139 3.498 8.241 8.24 6.658a4.94 4.94 0 0 0 3.127-3.483c.25-.807.665-.945 1.422-.712a6.56 6.56 0 0 1-3.135 4.792 7.595 7.595 0 0 1-8.847-1.131 7.96 7.96 0 0 1-1.987-4.67c0-.286-.095-.552-.162-.808Q0 47.607 0 46.92zm1.365-.347h11.69c-.072-3.725-2.423-6.367-5.558-6.392-3.49-.047-5.987 2.537-6.14 6.375z"/></svg>
